source/img/footer-logo.svg

<svg width="129" height="24" viewBox="0 0 129 24" fill="none" xmlns="http://www.w3.org/2000/svg">
<path d="M2.10253 22.0513C0.968358 20.3682 0.405343 18.3503 0.50003 16.3077V7.79487C0.362683 5.73031 0.890444 3.67661 2.00238 1.94872C3.1041 0.615385 4.80676 0 7.31067 0C9.81458 0 11.4171 0.615385 12.4187 1.74359C13.506 3.17255 14.0409 4.96181 13.921 6.76923V8.82051H9.01333V6.46154C9.05297 5.76385 8.95065 5.06533 8.71286 4.41026C8.58576 4.14583 8.38431 3.9264 8.13443 3.78018C7.88455 3.63395 7.59766 3.56763 7.31067 3.58974C6.60958 3.58974 6.10879 3.79487 5.90848 4.30769C5.68191 5.03643 5.58025 5.79984 5.60801 6.5641V17.5385C5.55512 18.2799 5.69327 19.0227 6.00864 19.6923C6.20895 20.2051 6.70973 20.4103 7.41083 20.4103C8.11192 20.4103 8.51255 20.2051 8.71286 19.6923C8.94058 18.9992 9.04242 18.2692 9.01333 17.5385V15.0769H13.921V17.1282C14.0229 18.9651 13.4911 20.7803 12.4187 22.2564C11.4171 23.4872 9.71443 24.1026 7.31067 24.1026C4.90692 24 3.1041 23.3846 2.10253 22.0513Z" fill="#111111"/>
<path d="M19.8302 0.307617H25.5391L29.7457 23.6922H25.1385L24.3372 18.7692H21.0321L20.2308 23.6922H15.5235L19.8302 0.307617ZM23.9366 15.6922L22.7347 6.56403L21.5329 15.6922H23.9366Z" fill="#111111"/>
<path d="M33.2512 4.20505H29.8458V0.307617H41.7645V4.10249H38.3591V23.6922H33.2512V4.20505Z" fill="#111111"/>
<path d="M50.8787 0.307617H59.6925V2.76916H53.9836V10.4615H58.5908V12.8204H53.9836V21.4358H59.6925V23.7948H50.7786V0.307617H50.8787Z" fill="#111111"/>
<path d="M62.2966 0.307617H64.5L71.0102 15.7948V0.307617H73.6142V23.6922H71.6111L65.0008 7.69223V23.6922H62.2966V0.307617Z" fill="#111111"/>
<path d="M76.6189 0.307617H85.4327V2.76916H79.7238V10.4615H84.331V12.8204H79.7238V21.4358H85.4327V23.7948H76.6189V0.307617Z" fill="#111111"/>
<path d="M88.0368 0.3076H92.644C94.4564 0.179397 96.2575 0.685711 97.7519 1.7435C98.8537 2.66657 99.3544 4.3076 99.3544 6.46145C99.3544 9.4358 98.453 11.282 96.5501 11.8973L99.7551 23.5897H96.6502L93.6455 12.6153H91.1416V23.5897H87.9366V0.3076H88.0368ZM92.4437 10.3589C93.4762 10.446 94.5053 10.1553 95.3482 9.53837C95.9491 9.02555 96.2496 7.99991 96.2496 6.46145C96.2774 5.69719 96.1757 4.93378 95.9491 4.20504C95.7237 3.68211 95.3366 3.24964 94.8474 2.97427C94.1576 2.65236 93.4003 2.51137 92.644 2.56401H91.2418V10.2563H92.4437V10.3589Z" fill="#111111"/>
<path d="M103.361 21.9487C102.32 20.1554 101.831 18.0821 101.959 15.9999V8.20507C101.934 6.71875 102.102 5.23567 102.459 3.79481C102.794 2.71811 103.462 1.78218 104.362 1.12815C105.481 0.450275 106.771 0.128917 108.068 0.20507C110.171 0.20507 111.674 0.71789 112.575 1.8461C113.612 3.33582 114.108 5.14977 113.977 6.9743V7.79481H110.973V7.07687C110.977 6.21789 110.91 5.36008 110.772 4.51276C110.688 3.97732 110.4 3.49792 109.971 3.17943C109.408 2.80104 108.74 2.62099 108.068 2.66661C107.35 2.61949 106.639 2.83785 106.065 3.28199C105.829 3.48529 105.637 3.73569 105.499 4.01787C105.361 4.30004 105.281 4.60805 105.264 4.92302C105.132 5.83993 105.065 6.76543 105.063 7.69225V16.4102C104.99 17.7384 105.194 19.0674 105.664 20.3076C106.065 21.1281 106.866 21.4358 108.068 21.4358C108.543 21.4964 109.024 21.4119 109.452 21.1929C109.88 20.9739 110.234 20.6302 110.472 20.2051C111.001 18.9081 111.241 17.5064 111.173 16.1025V14.4615H108.268V12.1025H114.077V23.6923H112.074L111.774 21.0256C111.511 21.9193 110.965 22.6975 110.22 23.2364C109.476 23.7753 108.578 24.0441 107.667 23.9999C106.84 24.0498 106.013 23.8885 105.261 23.5304C104.51 23.1724 103.857 22.6289 103.361 21.9487Z" fill="#111111"/>
<path d="M120.487 15.4871L115.58 0.410156H118.584L122.09 11.6922L125.495 0.410156H128.5L123.592 15.4871V23.6922H120.588V15.4871H120.487Z" fill="#111111"/>
</svg>

<svg xmlns="http://www.w3.org/2000/svg" width="129" height="24" fill="none"><path fill="#111" d="M2.1 22a9.5 9.5 0 0 1-1.6-5.7V7.8C.4 5.8.9 3.7 2 1.9 3.1.6 4.8 0 7.3 0s4.1.6 5.1 1.7C13.5 3.2 14 5 14 6.7v2.1H9V6.5c0-.7 0-1.4-.3-2-.1-.4-.3-.6-.6-.7-.2-.2-.5-.2-.8-.2-.7 0-1.2.2-1.4.7-.2.7-.3 1.5-.3 2.3v11c0 .7 0 1.4.4 2 .2.6.7.8 1.4.8s1.1-.2 1.3-.7c.2-.7.3-1.4.3-2.2v-2.4h5v2a8 8 0 0 1-1.6 5.2c-1 1.2-2.7 1.8-5 1.8-2.5-.1-4.3-.7-5.3-2ZM19.8.3h5.7l4.2 23.4h-4.6l-.8-5H21l-.8 5h-4.7L19.8.3ZM24 15.7l-1.2-9.1-1.2 9H24ZM33.3 4.2h-3.5V.3h12v3.8h-3.4v19.6h-5.1V4.2ZM50.9.3h8.8v2.5H54v7.7h4.6v2.3H54v8.6h5.7v2.4h-9V.3h.2ZM62.3.3h2.2L71 15.8V.3h2.6v23.4h-2L65 7.7v16h-2.7V.3ZM76.6.3h8.8v2.5h-5.7v7.7h4.6v2.3h-4.6v8.6h5.7v2.4h-8.8V.3ZM88 .3h4.6c1.9-.1 3.7.4 5.2 1.4 1 1 1.6 2.6 1.6 4.8 0 3-1 4.8-2.8 5.4l3.2 11.7h-3.1l-3-11H91v11H88V.3h.1Zm4.4 10c1 .1 2.1-.1 3-.8.5-.5.8-1.5.8-3 0-.8 0-1.6-.3-2.3-.2-.5-.6-1-1-1.2-.7-.3-1.5-.5-2.3-.4h-1.4v7.7h1.2ZM103.4 22c-1-1.8-1.6-4-1.4-6V8.2c0-1.5.1-3 .5-4.4.3-1 1-2 1.9-2.7 1-.6 2.4-1 3.7-.9 2 0 3.6.5 4.5 1.6A8 8 0 0 1 114 7v.8h-3V7c0-.9 0-1.7-.2-2.6-.1-.5-.4-1-.8-1.3a3 3 0 0 0-2-.5 3 3 0 0 0-2 .6 2.3 2.3 0 0 0-.7 1.6c-.2 1-.2 1.9-.2 2.8v8.7c-.1 1.3 0 2.7.6 4 .4.7 1.2 1 2.4 1a2.4 2.4 0 0 0 2.4-1.2c.5-1.3.7-2.7.7-4.1v-1.6h-3V12h5.9v11.6h-2l-.3-2.7c-.3 1-.8 1.7-1.6 2.2a4 4 0 0 1-2.5.8 5 5 0 0 1-4.3-2ZM120.5 15.5l-5-15h3l3.6 11.2L125.5.4h3l-5 15v8.3h-3v-8.2Z"/></svg>
